X: 253
T: Farewell Trion
B: canberra pickers and fiddlers
B: tunes
M:2/4
L:1/8
Q: 1/4=140
K:C
V:1 
z|"C"e/ g a/ ge|(dc) c2|A/ c d/ c/A/G/A/|c/A/c/d/ e2|
"C"e/ g a/ ge|(dc) c2|"C"A/ c d/ c/A/G/A/|"C"A/G/"G"E/C/ "C"D/C:|
||""C/|"C"G,/A,/C/D/ E/G/A/B/|"C"c/B/A ("F"c2|c2 c)c/d/|"F"c/A/G/c/ "C"A/G/E/C/|
"C"D/ E3 C/|"C"G,/A,/C/D/ "F"E/""G/A/B/|c/B/A (c2|"F"c2 "C"c)c/d/|"C"c/A/G/A/ c/A/G/E/|
"C"D/C/E/F/||GE/F/ GE/F/|G/A/G/E/ D/C/E/F/|GE/F/ GA/B/|c/A/G/E/ D/""C/E/F/|
"C"GE/F/ G>G|G/A/G/E/ D/C/A,/C/|G,/A,/C/D/ E/G/A/B/|"G"c/A/G/E/ "C"D<C||
% abcbook-tune_id 63ae8f1c05ddfa766334de29
% abcbook-tune_composer_id 
% abcbook-link-0 https://www.youtube.com/watch?v=hOar4KegZiY
% abcbook-boost 0
% abcbook-difficulty 0
% abcbook-tags canberra pickers and fiddlers,old time tunes,© free
% abcbook-tablature 
% abcbook-transpose 
% abcbook-tuning GDAE
% abcbook-lastupdated 1729082276072
% abcbook-src-url https://tunebook.net/scrape/tunes.abc
% abcbook-soundfonts 
% abcbook-repeats 1


